X:314
%%etbk:tnset id:97,pos:1,rep:3x,ant:
%%etbk:tnset id:259,pos:4,rep:2x+1A-Stop,ant:
%%etbk:wsite http://www.thesession.org/tunes/display/1076
%%etbk:pldat 2016-06-23T18:59,2016-06-22T16:31,2016-06-20T17:56,2016-05-04T16:05,2016-03-11T17:02,2016-03-09T15:36,2016-03-07T18:47,2016-03-05T13:24,2016-02-16T17:17,2015-11-03T15:51,2015-10-29T18:45,2015-10-27T15:40,2015-10-24T13:51,2015-10-20T17:15,2015-10-06T15:08,2015-06-24T19:01,2015-05-28T18:19,2015-03-12T18:38,2015-03-09T17:43,2015-02-16T19:24,2015-01-27T16:20,2014-11-05T18:16,2014-11-02T15:08,2014-10-29T16:15,2014-08-21T18:31,2014-08-19T18:09,2014-06-25T15:27,2014-06-13T15:19,2014-06-04T15:20,2014-03-04T18:19,2014-03-02T16:17,2014-02-26T16:34,2013-10-30T15:30,2013-10-28T18:30,2013-10-24T18:29,2013-10-18T15:16,2013-10-14T18:51,2013-10-09T16:28
T: Black Rogue, The
Z: Piano Box Version by Martin Fleischmann
H: Created 2013-02-19 /  Last Modified 2013-02-19
M: 6/8
L: 1/8
R: jig
K: Dmaj
!4!d |: "A"!3!c!1!AA !3!BA!1!G | !3!c!1!AA A2!4!d | !3!c!1!AA !3!BA!1!G | "D"!4!A!2!F!1!D D2!4!d |
"A"!3!c!1!AA !3!BA!1!G | !3!c!1!A!4!A !4!A!2!F!1!D | "G"!3!G!2!G!3!G !5!BAG | "D"!4!A!2!F!1!D D3 :|
!4!e |:"D"!3!f!2!f!3!f !4!gfg | !5!a!3!f!1!d !3!cBA| !3!fff !4!gfg | !5!a!3!f!1!d !1!df!4!g |
!5!agf !4!gfe | !3!fed !2!ef!1!d | "A"!3!c!1!AA !3!BA!1!G | "D"!4!A!2!F!1!D !1!D3 :||


